X: 10841
Q: "Andantino"
M: 2/4
L: 1/16
K: F
c2 | (F3G) (A2F2) | (A3B) (c2A2) | (G2A2) (B2c2) |
d6 d2 | (f2a2) (c2f2) | (d2f2) (G2B2) | (c2B2) (A2G2) |
d6 d2 | g6 ^g2 | (a3g/f/) (e3f/d/) | (g3a) (c2=B2) |
c6 c2 | {=B/c/d/}c4 (a2f2) | (f2e2) (d2c2) | {=B/c/d2}c4 (a2f2) |
(f2e2) z2e2 | (a2d2) d4 | b6 g2 | f4 e4 | Hd4 z2 c2 |
(F3G) (A2F2) | (A3B) (c2A2) | (G2A2) (B2c2) | d6 d2 | (f2a2) (c2f2) |
(d2f2) (G2B2) | A4 TG4{FG} | G4 fgab | c'2af b2ge |
f2F2 fgab | c'2af b2ge | f4 F4 | F6 |]




